X:1
T:Example in G
M: 2/4
L: 1/16
K: G
d2d2edB2 | A8 | d2d2edB2 | A6|
d2B2A2B2 | d2B2A2G2 | A2G2A2G2 | A8 |
A2B2d2B2 | A4A2 | G2A2E2E2 | D8 |
A2B2A2B2 | d2d2d2B2 | A2B2A2B2 | G8 |
d2B2A4 | d2d2d2d2 | d2d2B2A2 | G4G4 |
A2G2A2G2 | E2D2D2E2 | D2G2E2E2 | D8 |
G2A2G2A2 | d2d2c2 | d2d2d2A2 | G8 |
G2G2G2G2 | G2G2G4 | G2A2G2F2 | F8